public/operators/nobg/bc-game.svg

<svg width="127" height="29" viewBox="0 0 127 29" fill="none" xmlns="http://www.w3.org/2000/svg">
<path d="M111.761 14.8078L111.197 14.7443C110.438 14.9796 109.679 15.2532 108.927 14.6328C109.28 14.1239 109.332 13.4591 109.874 13.0678L110.48 12.3585C110.48 12.1263 110.48 11.9037 110.759 11.805C110.893 11.141 111.259 10.5437 111.794 10.1159C110.577 9.2602 109.258 9.92164 108.057 9.75323L104.292 16.2934L100.617 9.80398H96.6667V24.1604H100.335V15.6889L104.276 22.1497L108.168 15.9563L108.492 16.0518V24.1667H112.082C112.082 21.7967 112.111 19.5286 112.082 17.2574C112.047 16.4397 112.361 15.5619 111.761 14.8078Z" fill="#FEFEFE"/>
<path d="M41.5423 17.0654C43.1395 15.5804 43.252 13.8006 42.4674 12.0441C41.7041 10.3406 39.9376 9.8082 38.15 9.7286C35.7751 9.60949 33.3857 9.69882 30.9333 9.69882V25.1333C33.8539 25.001 36.588 25.3055 39.3323 24.8919C41.3168 24.5941 42.7067 23.8102 43.2627 21.9148C43.8363 19.9534 43.4104 18.3225 41.5423 17.0654ZM34.8073 12.7985C35.9447 12.6249 37.1088 12.6891 38.2171 12.9869C38.9209 13.6883 39.0896 14.5152 38.569 15.2593C37.6329 16.5825 36.1586 15.8614 34.818 16.1096L34.8073 12.7985ZM38.1221 21.8786C37.0242 22.2093 35.9228 22.345 34.8321 21.8488V18.5805H37.1967C37.668 18.3688 37.9004 18.7756 38.2523 18.9112C39.3078 18.6895 39.1915 19.5233 39.2621 20.0195C39.3888 20.8697 39.1987 21.6468 38.1221 21.875V21.8786Z" fill="#FEFEFE"/>
<path d="M74.0788 21.6502C72.429 22.0546 70.7795 22.0475 70.0897 20.513C69.0379 18.1732 68.8917 15.3289 70.2424 13.2175C71.6823 10.9538 74.1709 12.1357 76.3292 12.4191L77.2572 9.89944C74.2629 7.92286 69.1999 8.47238 67.1912 10.9366C65.3762 13.1586 65.2204 20.0294 66.9241 22.6177C68.7167 25.3412 73.265 25.9459 77.3334 23.9761V17.2057H74.0788V21.6502Z" fill="#FEFEFE"/>
<path d="M85.5175 9.67922C86.0525 11.28 86.7997 12.6985 87.072 14.2642C87.7365 15.4313 88.2303 16.69 88.5379 18.0003C87.7811 18.2405 87.072 18.1253 86.3217 18.0867C86.4357 16.9759 87.0878 16.0539 87.037 14.9716H83.8711L80.2334 24.1573H84.0613L85.2515 21.1956H89.5951L90.8615 24.1667H94.7334L89.0347 9.66666L85.5175 9.67922Z" fill="#FEFEFE"/>
<path d="M50.0001 20.6687C48.4569 18.7785 48.7016 16.1422 49.5514 13.9953C50.9009 10.5713 53.8189 12.4475 56.1325 12.2833C56.4318 11.4136 56.9029 10.6501 56.9474 9.73916C53.765 7.89381 48.7272 8.5957 46.7636 11.1362C45.1057 13.2831 44.9625 20.2405 46.5313 22.4081C48.6319 25.3081 53.1859 26.0033 57.0333 23.9623C56.8586 22.9587 56.5239 21.9946 56.0435 21.1136C53.9432 21.9833 51.6486 22.6852 50.0001 20.6687Z" fill="#FEFEFE"/>
<path d="M119.016 18.3235H125.661V15.5025L115.033 15.4667V24.1667H126.633V20.9659H119.016V18.3235Z" fill="#FEFEFE"/>
<path d="M60.1792 24.1667H63.8V21.2667H59.9416C60.0602 22.3024 59.7276 23.2394 60.1792 24.1667Z" fill="#FEFEFE"/>
<path d="M126.555 12.2675L126.633 9.96078C126.082 9.55053 125.393 9.70277 124.763 9.70277C121.66 9.66666 118.557 9.66666 115.453 9.66666L115.033 10.0072C115.059 10.0169 115.088 10.019 115.116 10.0127C115.143 10.0065 115.166 9.99274 115.181 9.97366V12.2675L115.152 12.5409L126.286 12.5667C126.38 12.548 126.477 12.5395 126.574 12.5409V12.2829L126.555 12.2675Z" fill="#FEFEFE"/>
<path d="M22.2333 21.2715C22.2202 18.2005 22.2082 15.1294 22.1975 12.0583C21.8024 11.2271 22.0831 10.1623 21.2965 9.46122C19.39 8.76651 17.9538 7.24371 16.0376 6.59125L13.7362 4.96805C12.14 4.02654 10.5209 3.78639 8.86916 4.83177C8.85487 4.87083 8.82788 4.90439 8.79244 4.92667C8.75697 4.94895 8.71508 4.95908 8.6733 4.95503C8.64237 5.04964 8.62588 5.14802 8.62434 5.24726L7.53077 5.84475L6.91381 5.94197L5.95411 6.52644L5.80721 6.2018C5.88556 5.22788 6.05203 4.21808 5.67338 3.24735L5.08255 1.62415C4.9912 1.39296 4.83802 1.19071 4.63951 1.03968C4.44104 0.88864 4.2048 0.794315 3.95634 0.767117C3.42754 0.111471 2.70285 0.348441 2.03367 0.341786C1.34816 -0.206803 0.675726 -0.0184433 0 0.371009L0.0946707 8.16266V17.2526C0.112069 18.7372 0.126207 20.2122 0.137088 21.6775L0 21.7912L0.414582 22.4598L0.525545 23.0507C0.910744 23.807 1.83129 23.9144 2.34052 24.5246C2.80732 24.5764 3.02928 25.1738 3.56137 25.0798L5.24251 26.0925C5.34369 26.3555 5.56894 26.3879 5.8105 26.4171L8.12163 27.7157C9.58079 29.0727 11.2423 29.3227 13.0801 28.615L13.4066 28.2351L14.0594 28.0241L14.6894 27.8942C14.6811 27.8005 14.7104 27.707 14.771 27.6347C15.0224 27.1281 15.5055 27.0016 15.9984 26.8911L16.4032 26.4626C17.5327 25.9756 18.4369 25.0668 19.6445 24.7225L21.8711 23.0246C21.8905 22.726 21.6686 22.4208 21.9036 22.1285C22.2464 21.9243 22.2333 21.593 22.2333 21.2715ZM7.88007 10.7144L8.53293 10.5422C10.3153 9.20139 12.2673 9.27922 14.2781 9.86687L14.3173 9.89291L16.648 11.4186C16.8994 12.0679 16.1159 12.2238 16.0376 12.7172C15.4696 12.8017 15.3325 13.3664 14.9604 13.6717C14.9589 13.7663 14.9446 13.8601 14.9179 13.9509C14.2129 14.6231 13.2858 15.0449 12.7602 15.9216C12.0747 16.3727 11.9735 16.9181 12.4827 17.5674L12.7896 17.8726C13.7689 18.1096 14.1606 19.1712 15.042 19.5479L16.462 21.1028C16.5976 21.1558 16.7163 21.244 16.8059 21.358C16.8955 21.4723 16.9526 21.6083 16.9712 21.7521C16.191 22.6222 15.1105 23.1482 14.079 23.7422L13.7526 23.6545L13.1454 23.739C12.8222 23.9016 12.4657 23.9884 12.1035 23.9925C11.7412 23.9962 11.3829 23.9172 11.0562 23.7616C10.1651 23.9468 9.39796 23.3525 8.53618 23.3623C8.12489 23.0052 7.85068 22.4824 7.27291 22.3236C6.25444 21.632 5.8105 20.5412 5.28818 19.5057C4.83118 18.048 4.43621 16.5579 4.89647 15.0027L4.97156 14.678L6.02594 12.7302C6.01069 12.661 5.99548 12.5907 5.98023 12.5193L6.91381 11.7725L7.88007 10.7144Z" fill="#5DDA1C"/>
<path d="M10.6333 14.9171L10.3176 13.7356C9.07083 13.212 8.7131 13.6493 8.69995 15.7047C9.02289 16.1487 9.4404 16.4067 9.87837 16.4333L10.5886 15.6931L10.6333 14.9171Z" fill="#F0F0EB"/>
</svg>

<svg xmlns="http://www.w3.org/2000/svg" width="127" height="29" fill="none"><path fill="#FEFEFE" d="m111.76 14.8-.56-.06c-.76.24-1.52.51-2.27-.1.35-.52.4-1.18.94-1.57l.61-.71c0-.23 0-.46.28-.55a2.9 2.9 0 0 1 1.03-1.7c-1.21-.85-2.53-.19-3.73-.36l-3.77 6.54-3.67-6.49h-3.95v14.36h3.66v-8.47l3.95 6.46 3.89-6.2.32.1v8.12h3.6c0-2.37.02-4.64 0-6.91-.04-.82.27-1.7-.33-2.45ZM41.54 17.07c1.6-1.49 1.71-3.27.93-5.03-.77-1.7-2.53-2.23-4.32-2.31-2.37-.12-4.76-.03-7.22-.03v15.43c2.92-.13 5.66.18 8.4-.24 1.99-.3 3.38-1.08 3.93-2.98.58-1.96.15-3.59-1.72-4.84Zm-6.73-4.27c1.13-.18 2.3-.11 3.4.19.71.7.88 1.53.36 2.27-.94 1.32-2.41.6-3.75.85l-.01-3.31Zm3.31 9.08c-1.1.33-2.2.46-3.29-.03v-3.27h2.37c.47-.21.7.2 1.05.33 1.06-.22.94.61 1.01 1.11.13.85-.06 1.63-1.14 1.86ZM74.08 21.65c-1.65.4-3.3.4-3.99-1.14-1.05-2.34-1.2-5.18.15-7.3 1.44-2.26 3.93-1.07 6.09-.8l.93-2.51c-3-1.98-8.06-1.43-10.07 1.04-1.81 2.22-1.97 9.09-.27 11.68 1.8 2.72 6.34 3.33 10.41 1.36V17.2h-3.25v4.44ZM85.52 9.68c.53 1.6 1.28 3.02 1.55 4.58A14.03 14.03 0 0 1 88.54 18c-.76.24-1.47.13-2.22.09.12-1.11.77-2.04.72-3.12h-3.17l-3.64 9.19h3.83l1.2-2.96h4.34l1.26 2.97h3.87l-5.7-14.5h-3.51ZM50 20.67c-1.54-1.9-1.3-4.53-.45-6.67 1.35-3.43 4.27-1.55 6.58-1.72.3-.87.77-1.63.82-2.54-3.19-1.85-8.22-1.14-10.19 1.4-1.65 2.14-1.8 9.1-.23 11.27 2.1 2.9 6.66 3.6 10.5 1.55-.17-1-.5-1.97-.99-2.85-2.1.87-4.4 1.58-6.04-.44ZM119.02 18.32h6.64V15.5l-10.63-.03v8.7h11.6v-3.2h-7.61v-2.65ZM60.18 24.17h3.62v-2.9h-3.86c.12 1.03-.21 1.97.24 2.9ZM126.56 12.27l.07-2.3c-.55-.42-1.24-.27-1.87-.27-3.1-.03-6.2-.03-9.3-.03l-.43.34h.09c.02 0 .05-.02.06-.04v2.3l-.03.27 11.14.03c.09-.02.19-.03.28-.03v-.26l-.01-.01Z"/><path fill="#5DDA1C" d="m22.23 21.27-.03-9.21c-.4-.83-.12-1.9-.9-2.6-1.91-.7-3.35-2.22-5.26-2.87l-2.3-1.62c-1.6-.94-3.22-1.18-4.87-.14a.19.19 0 0 1-.2.13c-.03.09-.04.19-.05.29l-1.09.6-.62.1-.96.58-.14-.33c.08-.97.24-1.98-.14-2.95l-.59-1.63A1.36 1.36 0 0 0 3.96.77C3.43.1 2.7.35 2.03.34 1.35-.2.68-.02 0 .37l.1 7.8v9.08l.04 4.43-.14.11.41.67.12.6c.38.75 1.3.85 1.81 1.46.47.06.69.65 1.22.56l1.68 1.01c.1.27.33.3.57.33l2.31 1.3a4.43 4.43 0 0 0 4.96.9l.33-.38.65-.22.63-.13c0-.09.02-.18.08-.26.25-.5.74-.63 1.23-.74l.4-.43c1.13-.48 2.04-1.4 3.24-1.74l2.23-1.7c.02-.3-.2-.6.03-.9.35-.2.33-.53.33-.85ZM7.88 10.71l.65-.17c1.79-1.34 3.74-1.26 5.75-.67l.04.02 2.33 1.53c.25.65-.53.8-.61 1.3-.57.08-.7.65-1.08.95 0 .1-.02.19-.04.28-.7.67-1.63 1.1-2.16 1.97-.69.45-.79 1-.28 1.65l.31.3c.98.24 1.37 1.3 2.25 1.68l1.42 1.55a.81.81 0 0 1 .51.65c-.78.87-1.86 1.4-2.9 2l-.32-.1-.6.09a2.38 2.38 0 0 1-2.1.02c-.88.19-1.65-.4-2.51-.4-.42-.35-.69-.88-1.27-1.04-1.02-.69-1.46-1.78-1.98-2.81-.46-1.46-.85-2.95-.4-4.5l.08-.33 1.06-1.95a33.3 33.3 0 0 1-.05-.21l.93-.75.97-1.06Z"/><path fill="#F0F0EB" d="m10.63 14.92-.31-1.18c-1.25-.53-1.6-.1-1.62 1.96.32.45.74.7 1.18.73l.7-.74.05-.77Z"/></svg>
